; G-Code generated by Simplify3D(R) Version 2.2.2
; mai 30, 2015 at 7:50:52 
; Settings Summary
;   processName,Left extruder
;   applyToModels,resinTankWrench
;   profileLabel,Wanhao Duplicator 4/4X Dual (left extruder)
;   printMaterial,ABS
;   printQuality,Medium
;   extruderName,Right Extruder,Left Extruder
;   extruderToolheadNumber,0,1
;   extruderDiameter,0.4,0.4
;   extruderAutoWidth,0,0
;   extruderWidth,0.4,0.4
;   extrusionMultiplier,1,1
;   extruderUseRetract,1,1
;   extruderRetractionDistance,1,1
;   extruderExtraRestartDistance,0,0
;   extruderRetractionZLift,0,0
;   extruderRetractionSpeed,1200,1200
;   extruderUseCoasting,0,0
;   extruderCoastingDistance,0.2,0.2
;   extruderUseWipe,0,0
;   extruderWipeDistance,5,5
;   primaryExtruder,1
;   layerHeight,0.2
;   topSolidLayers,3
;   bottomSolidLayers,3
;   perimeterOutlines,2
;   printPerimetersInsideOut,1
;   startPointOption,2
;   startPointOriginX,0
;   startPointOriginY,0
;   startPointOriginZ,300
;   sequentialIslands,0
;   spiralVaseMode,0
;   firstLayerHeightPercentage,90
;   firstLayerWidthPercentage,100
;   firstLayerUnderspeed,0.5
;   useRaft,0
;   raftExtruder,1
;   raftLayers,3
;   raftOffset,3
;   raftSeparationDistance,0.14
;   raftInfill,85
;   disableRaftBaseLayers,0
;   useSkirt,1
;   skirtExtruder,1
;   skirtLayers,1
;   skirtOutlines,2
;   skirtOffset,4
;   infillExtruder,1
;   externalInfillPattern,Rectilinear
;   infillPercentage,30
;   outlineOverlapPercentage,20
;   infillExtrusionWidthPercentage,100
;   minInfillLength,5
;   infillLayerInterval,1
;   randomInfillStartPoint,0
;   infillAngles,45,-45
;   generateSupport,0
;   supportExtruder,1
;   supportInfill,30
;   supportExtraInflation,0
;   denseSupportLayers,0
;   denseSupportInfill,70
;   supportLayerInterval,1
;   supportHorizontalPartOffset,0.3
;   supportUpperSeparationLayers,1
;   supportLowerSeparationLayers,1
;   supportGridSpacing,4
;   maxOverhangAngle,45
;   supportAngles,0
;   temperatureName,Right Extruder,Left Extruder,Heated Build Platform
;   temperatureNumber,0,1,0
;   temperatureSetpointCount,1,1,1
;   temperatureSetpointLayers,1,1,1
;   temperatureSetpointTemperatures,0,230,110
;   temperatureStabilizeAtStartup,0,0,0
;   temperatureHeatedBed,0,0,1
;   temperatureRelayBetweenLayers,0,0,0
;   temperatureRelayBetweenLoops,0,0,0
;   fanLayers,1
;   fanSpeeds,0
;   blipFanToFullPower,0
;   adjustSpeedForCooling,1
;   minSpeedLayerTime,15
;   minCoolingSpeedSlowdown,20
;   increaseFanForCooling,0
;   minFanLayerTime,45
;   maxCoolingFanSpeed,100
;   increaseFanForBridging,1
;   bridgingFanSpeed,100
;   use5D,1
;   relativeEdistances,1
;   allowEaxisZeroing,0
;   independentExtruderAxes,1
;   includeM10123,0
;   stickySupport,1
;   detectArcs,0
;   arcReplaceG2G3,0
;   arcRadialCompensation,1
;   gcodeXoffset,0
;   gcodeYoffset,0
;   gcodeZoffset,0
;   overrideMachineDefinition,1
;   machineTypeOverride,0
;   strokeXoverride,220
;   strokeYoverride,140
;   strokeZoverride,150
;   originOffsetXoverride,110
;   originOffsetYoverride,70
;   originOffsetZoverride,0
;   homeXdirOverride,1
;   homeYdirOverride,1
;   homeZdirOverride,-1
;   flipXoverride,1
;   flipYoverride,-1
;   flipZoverride,1
;   startingGcode,; **** Duplicator 4 dual start.gcode ****,M73 P0 ; enable build progress,G162 X Y F3000 ; home XY maximum,G161 Z F1200 ; home Z minimum,G92 Z-5 ; set Z to -5,G1 Z0 ; move Z to 0,G161 Z F100 ; home Z slowly,M132 X Y Z A B ; recall home offsets,M135 T0 ; load right extruder offsets,G1 X-120 Y-70 Z30 F9000 ; move to wait position off table,G130 X20 Y20 Z20 A20 B20 ; lower stepper Vrefs while heating,M126 S[fan_speed_pwm],M140 S[bed0_temperature] T0,M134 T0 ; stabilize bed temperature,M104 S[extruder1_temperature] T1,M133 T1 ; stabilize extruder temperature,G130 X127 Y127 Z40 A127 B127 ; default stepper Vrefs,G92 A0 B0 ; zero extruders,M135 T1 ; load left extruder offsets,G1 Z0.4 ; position nozzle,G1 E25 F300 ; purge nozzle,G1 X-115 Y-65 Z0.15 F1200 ; slow wipe,G1 X-110 Y-60 Z0.5 F1200 ; lift,G92 A0 B0 ; zero extruders,M73 P1 ;@body (notify GPX body has started),; **** end of start.gcode ****
;   layerChangeGcode,
;   toolChangeGcode,
;   endingGcode,; **** Duplicator 4 dual end.gcode ****,M73 P100 ; end build progress,G1 Z150 F1000 ; send Z axis to bottom of machine,M140 S0 T0 ; cool down HBP,M104 S0 T0 ; cool down right extruder,M104 S0 T1 ; cool down left extruder,M127 ; stop blower fan,G162 X Y F3000 ; home XY maximum,M18 ; disable stepper,M72 P1 ; play Ta-Da song,; **** end of end.gcode ****
;   createX3G,1
;   celebration,0
;   celebrationSong,Random Song
;   createMB5G,0
;   postProcessing,
;   defaultSpeed,3600
;   outlineUnderspeed,0.5
;   solidInfillUnderspeed,0.8
;   supportUnderspeed,0.8
;   rapidXYspeed,4200
;   rapidZspeed,1200
;   minBridgingArea,50
;   bridgingExtrusionMultiplier,1
;   bridgingSpeedMultiplier,0.8
;   filamentDiameter,1.75
;   filamentPricePerKg,46
;   useMinPrintHeight,0
;   minPrintHeight,0
;   useMaxPrintHeight,0
;   maxPrintHeight,0
;   useDiaphragm,0
;   diaphragmLayerInterval,20
;   robustSlicing,1
;   mergeAllIntoSolid,0
;   onlyRetractWhenCrossingOutline,1
;   retractBetweenLayers,1
;   useRetractionMinTravel,0
;   retractionMinTravel,3
;   useRetractionOozeRate,0
;   retractionOozeRate,100
;   onlyWipeOutlines,1
;   toolChangeRetractionDistance,12
;   toolChangeExtraRestartDistance,-0.5
;   toolChangeRetractionSpeed,600
;   allowThinWallGapFill,1
;   thinWallAllowedOverlapPercentage,10
;   horizontalSizeCompensation,0
G90
M83
; **** Duplicator 4 dual start.gcode ****
M73 P0 ; enable build progress
G162 X Y F3000 ; home XY maximum
G161 Z F1200 ; home Z minimum
G92 Z-5 ; set Z to -5
G1 Z0 ; move Z to 0
G161 Z F100 ; home Z slowly
M132 X Y Z A B ; recall home offsets
M135 T0 ; load right extruder offsets
G1 X-120 Y-70 Z30 F9000 ; move to wait position off table
G130 X20 Y20 Z20 A20 B20 ; lower stepper Vrefs while heating
M127
M140 S110 T0
M134 T0 ; stabilize bed temperature
M104 S230 T1
M133 T1 ; stabilize extruder temperature
G130 X127 Y127 Z40 A127 B127 ; default stepper Vrefs
G92 A0 B0 ; zero extruders
M135 T1 ; load left extruder offsets
G1 Z0.4 ; position nozzle
G1 E25 F300 ; purge nozzle
G1 X-115 Y-65 Z0.15 F1200 ; slow wipe
G1 X-110 Y-60 Z0.5 F1200 ; lift
G92 A0 B0 ; zero extruders
M73 P1 ;@body (notify GPX body has started)
; **** end of start.gcode ****
G1 E-1 F1200
G1 Z0.18 F1200
; layer 1, Z = 0.18
M135 T1
; tool H0.2 W0.4
G1 X-6.695 Y7.739 F4200
G1 E1 F360
G1 X-8.448 Y7.331 E0.0598 F1800
G1 X-10.219 Y7.012 E0.0599
G1 X-12.003 Y6.784 E0.0598
G1 X-13.798 Y6.647 E0.0599
G1 X-15.655 Y6.6 E0.0618
G1 X-93.172 Y6.6 E2.5782
G1 X-93.393 Y6.509 E0.0079
G1 X-95.905 Y3.997 E0.1182
G1 X-95.996 Y3.776 E0.0079
G1 X-95.996 Y-19.776 E0.7834
G1 X-95.905 Y-19.997 E0.0079
G1 X-93.393 Y-22.509 E0.1182
G1 X-93.172 Y-22.6 E0.0079
G1 X-15.655 Y-22.6 E2.5782
G1 X-13.798 Y-22.647 E0.0618
G1 X-12.003 Y-22.784 E0.0599
G1 X-10.219 Y-23.012 E0.0598
G1 X-8.45 Y-23.33 E0.0598
G1 X-6.662 Y-23.748 E0.0611
G1 X-4.966 Y-24.235 E0.0587
G1 X-3.264 Y-24.819 E0.0598
G1 X-1.594 Y-25.489 E0.0598
G1 X0.04 Y-26.242 E0.0598
G1 X1.634 Y-27.078 E0.0598
G1 X3.183 Y-27.993 E0.0598
G1 X4.683 Y-28.986 E0.0598
G1 X6.131 Y-30.054 E0.0599
G1 X7.523 Y-31.194 E0.0598
G1 X8.855 Y-32.404 E0.0598
G1 X10.125 Y-33.679 E0.0599
G1 X11.327 Y-35.017 E0.0598
G1 X13.88 Y-38.169 E0.1349
G1 X13.885 Y-38.175 E0.0002
G1 X13.954 Y-38.256 E0.0035
G1 X13.959 Y-38.262 E0.0002
G1 X15.423 Y-39.896 E0.073
G1 X15.428 Y-39.902 E0.0002
G1 X15.501 Y-39.98 E0.0036
G1 X15.506 Y-39.985 E0.0002
G1 X17.05 Y-41.545 E0.073
G1 X17.055 Y-41.551 E0.0002
G1 X17.132 Y-41.625 E0.0036
G1 X17.138 Y-41.63 E0.0002
G1 X18.757 Y-43.111 E0.073
G1 X18.763 Y-43.116 E0.0002
G1 X18.843 Y-43.186 E0.0036
G1 X18.849 Y-43.191 E0.0002
G1 X20.54 Y-44.591 E0.073
G1 X20.546 Y-44.595 E0.0002
G1 X20.63 Y-44.661 E0.0036
G1 X20.636 Y-44.666 E0.0002
G1 X22.394 Y-45.979 E0.073
G1 X22.4 Y-45.984 E0.0002
G1 X22.487 Y-46.046 E0.0036
G1 X22.493 Y-46.05 E0.0002
G1 X24.315 Y-47.274 E0.073
G1 X24.321 Y-47.279 E0.0002
G1 X24.411 Y-47.336 E0.0036
G1 X24.417 Y-47.34 E0.0002
G1 X26.297 Y-48.472 E0.073
G1 X26.304 Y-48.476 E0.0002
G1 X26.397 Y-48.529 E0.0036
G1 X26.403 Y-48.533 E0.0002
G1 X28.337 Y-49.57 E0.073
G1 X28.344 Y-49.574 E0.0002
G1 X28.439 Y-49.622 E0.0036
G1 X28.446 Y-49.625 E0.0002
G1 X30.429 Y-50.565 E0.073
G1 X30.436 Y-50.569 E0.0002
G1 X30.534 Y-50.612 E0.0036
G1 X30.541 Y-50.615 E0.0002
G1 X32.568 Y-51.455 E0.073
G1 X32.575 Y-51.458 E0.0002
G1 X32.675 Y-51.497 E0.0036
G1 X32.682 Y-51.499 E0.0002
G1 X34.748 Y-52.238 E0.073
G1 X34.755 Y-52.24 E0.0002
G1 X34.857 Y-52.274 E0.0036
G1 X34.864 Y-52.276 E0.0002
G1 X36.965 Y-52.911 E0.073
G1 X36.972 Y-52.913 E0.0002
G1 X37.075 Y-52.942 E0.0036
G1 X37.082 Y-52.944 E0.0002
G1 X39.212 Y-53.474 E0.073
G1 X39.219 Y-53.475 E0.0002
G1 X39.324 Y-53.498 E0.0036
G1 X39.331 Y-53.5 E0.0002
G1 X41.485 Y-53.923 E0.073
G1 X41.492 Y-53.925 E0.0002
G1 X41.597 Y-53.943 E0.0036
G1 X41.605 Y-53.944 E0.0002
G1 X43.777 Y-54.26 E0.073
G1 X43.784 Y-54.261 E0.0002
G1 X43.89 Y-54.274 E0.0036
G1 X43.898 Y-54.274 E0.0002
G1 X46.083 Y-54.482 E0.073
G1 X46.09 Y-54.483 E0.0002
G1 X46.197 Y-54.49 E0.0036
G1 X46.204 Y-54.49 E0.0002
G1 X48.397 Y-54.589 E0.073
G1 X48.404 Y-54.589 E0.0002
G1 X48.511 Y-54.592 E0.0036
G1 X48.518 Y-54.592 E0.0002
G1 X50.713 Y-54.581 E0.073
G1 X50.721 Y-54.581 E0.0002
G1 X50.828 Y-54.578 E0.0036
G1 X50.835 Y-54.578 E0.0002
G1 X53.027 Y-54.458 E0.073
G1 X53.034 Y-54.458 E0.0002
G1 X53.141 Y-54.449 E0.0036
G1 X53.148 Y-54.449 E0.0002
G1 X55.331 Y-54.22 E0.073
G1 X55.338 Y-54.22 E0.0002
G1 X55.444 Y-54.206 E0.0036
G1 X55.452 Y-54.205 E0.0002
G1 X57.62 Y-53.868 E0.073
G1 X57.628 Y-53.867 E0.0002
G1 X57.733 Y-53.848 E0.0036
G1 X57.74 Y-53.847 E0.0002
G1 X59.89 Y-53.403 E0.073
G1 X59.897 Y-53.401 E0.0002
G1 X60.001 Y-53.377 E0.0036
G1 X60.008 Y-53.375 E0.0002
G1 X62.133 Y-52.825 E0.073
G1 X62.14 Y-52.823 E0.0002
G1 X62.243 Y-52.794 E0.0036
G1 X62.25 Y-52.792 E0.0002
G1 X64.345 Y-52.137 E0.073
G1 X64.352 Y-52.135 E0.0002
G1 X64.453 Y-52.1 E0.0036
G1 X64.46 Y-52.098 E0.0002
G1 X66.52 Y-51.34 E0.073
G1 X66.527 Y-51.337 E0.0002
G1 X66.626 Y-51.298 E0.0036
G1 X66.633 Y-51.295 E0.0002
G1 X68.653 Y-50.435 E0.073
G1 X68.66 Y-50.432 E0.0002
G1 X68.757 Y-50.388 E0.0036
G1 X68.764 Y-50.385 E0.0002
G1 X70.738 Y-49.426 E0.073
G1 X70.744 Y-49.422 E0.0002
G1 X70.839 Y-49.373 E0.0036
G1 X70.846 Y-49.37 E0.0002
G1 X72.77 Y-48.314 E0.073
G1 X72.777 Y-48.31 E0.0002
G1 X72.869 Y-48.256 E0.0036
G1 X72.875 Y-48.253 E0.0002
G1 X74.745 Y-47.102 E0.073
G1 X74.751 Y-47.098 E0.0002
G1 X74.841 Y-47.04 E0.0036
G1 X74.847 Y-47.036 E0.0002
G1 X76.657 Y-45.794 E0.073
G1 X76.663 Y-45.79 E0.0002
G1 X76.749 Y-45.727 E0.0036
G1 X76.755 Y-45.723 E0.0002
G1 X78.501 Y-44.393 E0.073
G1 X78.507 Y-44.388 E0.0002
G1 X78.59 Y-44.321 E0.0036
G1 X78.596 Y-44.317 E0.0002
G1 X80.274 Y-42.902 E0.073
G1 X80.28 Y-42.897 E0.0002
G1 X80.359 Y-42.826 E0.0036
G1 X80.365 Y-42.821 E0.0002
G1 X81.97 Y-41.324 E0.073
G1 X81.976 Y-41.319 E0.0002
G1 X82.052 Y-41.244 E0.0036
G1 X82.057 Y-41.239 E0.0002
G1 X83.586 Y-39.664 E0.073
G1 X83.591 Y-39.659 E0.0002
G1 X83.664 Y-39.58 E0.0036
G1 X83.669 Y-39.574 E0.0002
G1 X85.117 Y-37.926 E0.073
G1 X85.122 Y-37.92 E0.0002
G1 X85.191 Y-37.838 E0.0036
G1 X85.195 Y-37.832 E0.0002
G1 X86.56 Y-36.113 E0.073
G1 X86.565 Y-36.108 E0.0002
G1 X86.629 Y-36.022 E0.0036
G1 X86.634 Y-36.016 E0.0002
G1 X87.912 Y-34.232 E0.073
G1 X87.916 Y-34.226 E0.0002
G1 X87.976 Y-34.137 E0.0036
G1 X87.98 Y-34.131 E0.0002
G1 X89.168 Y-32.285 E0.073
G1 X89.172 Y-32.279 E0.0002
G1 X89.227 Y-32.188 E0.0036
G1 X89.231 Y-32.181 E0.0002
G1 X90.325 Y-30.279 E0.073
G1 X90.329 Y-30.272 E0.0002
G1 X90.38 Y-30.178 E0.0036
G1 X90.383 Y-30.172 E0.0002
G1 X91.382 Y-28.217 E0.073
G1 X91.385 Y-28.211 E0.0002
G1 X91.432 Y-28.114 E0.0036
G1 X91.435 Y-28.107 E0.0002
G1 X92.335 Y-26.106 E0.073
G1 X92.338 Y-26.099 E0.0002
G1 X92.379 Y-26 E0.0036
G1 X92.382 Y-25.993 E0.0002
G1 X93.182 Y-23.949 E0.073
G1 X93.184 Y-23.942 E0.0002
G1 X93.221 Y-23.842 E0.0036
G1 X93.223 Y-23.835 E0.0002
G1 X93.92 Y-21.754 E0.073
G1 X93.922 Y-21.747 E0.0002
G1 X93.954 Y-21.645 E0.0036
G1 X93.956 Y-21.637 E0.0002
G1 X94.549 Y-19.524 E0.073
G1 X94.551 Y-19.517 E0.0002
G1 X94.577 Y-19.413 E0.0036
G1 X94.579 Y-19.406 E0.0002
G1 X95.066 Y-17.266 E0.073
G1 X95.067 Y-17.259 E0.0002
G1 X95.088 Y-17.154 E0.0036
G1 X95.09 Y-17.147 E0.0002
G1 X95.47 Y-14.985 E0.073
G1 X95.471 Y-14.978 E0.0002
G1 X95.487 Y-14.872 E0.0036
G1 X95.488 Y-14.864 E0.0002
G1 X95.76 Y-12.687 E0.073
G1 X95.761 Y-12.679 E0.0002
G1 X95.771 Y-12.573 E0.0036
G1 X95.772 Y-12.565 E0.0002
G1 X95.935 Y-10.377 E0.073
G1 X95.936 Y-10.369 E0.0002
G1 X95.941 Y-10.262 E0.0036
G1 X95.941 Y-10.255 E0.0002
G1 X95.996 Y-8.061 E0.073
G1 X95.996 Y-8.053 E0.0002
G1 X95.996 Y-7.947 E0.0036
G1 X95.996 Y-7.939 E0.0002
G1 X95.941 Y-5.745 E0.073
G1 X95.941 Y-5.738 E0.0002
G1 X95.936 Y-5.631 E0.0036
G1 X95.935 Y-5.623 E0.0002
G1 X95.772 Y-3.435 E0.073
G1 X95.771 Y-3.427 E0.0002
G1 X95.761 Y-3.321 E0.0036
G1 X95.76 Y-3.313 E0.0002
G1 X95.488 Y-1.136 E0.073
G1 X95.487 Y-1.128 E0.0002
G1 X95.471 Y-1.022 E0.0036
G1 X95.47 Y-1.015 E0.0002
G1 X95.09 Y1.147 E0.073
G1 X95.088 Y1.154 E0.0002
G1 X95.067 Y1.259 E0.0036
G1 X95.066 Y1.266 E0.0002
G1 X94.579 Y3.406 E0.073
G1 X94.577 Y3.413 E0.0002
G1 X94.551 Y3.517 E0.0036
G1 X94.549 Y3.524 E0.0002
G1 X93.956 Y5.637 E0.073
G1 X93.954 Y5.645 E0.0002
G1 X93.922 Y5.747 E0.0036
G1 X93.92 Y5.754 E0.0002
G1 X93.223 Y7.835 E0.073
G1 X93.221 Y7.842 E0.0002
G1 X93.184 Y7.942 E0.0036
G1 X93.182 Y7.949 E0.0002
G1 X92.382 Y9.993 E0.073
G1 X92.379 Y10 E0.0002
G1 X92.338 Y10.099 E0.0036
G1 X92.335 Y10.106 E0.0002
G1 X91.435 Y12.107 E0.073
G1 X91.432 Y12.114 E0.0002
G1 X91.385 Y12.211 E0.0036
G1 X91.382 Y12.217 E0.0002
G1 X90.383 Y14.172 E0.073
G1 X90.38 Y14.178 E0.0002
G1 X90.329 Y14.272 E0.0036
G1 X90.325 Y14.279 E0.0002
G1 X89.231 Y16.181 E0.073
G1 X89.227 Y16.188 E0.0002
G1 X89.172 Y16.279 E0.0036
G1 X89.168 Y16.285 E0.0002
G1 X87.98 Y18.131 E0.073
G1 X87.976 Y18.137 E0.0002
G1 X87.916 Y18.226 E0.0036
G1 X87.912 Y18.232 E0.0002
G1 X86.634 Y20.016 E0.073
G1 X86.629 Y20.022 E0.0002
G1 X86.565 Y20.108 E0.0036
G1 X86.56 Y20.113 E0.0002
G1 X85.195 Y21.832 E0.073
G1 X85.191 Y21.838 E0.0002
G1 X85.122 Y21.92 E0.0036
G1 X85.117 Y21.926 E0.0002
G1 X83.669 Y23.574 E0.073
G1 X83.664 Y23.58 E0.0002
G1 X83.591 Y23.658 E0.0036
G1 X83.586 Y23.664 E0.0002
G1 X82.057 Y25.239 E0.073
G1 X82.052 Y25.244 E0.0002
G1 X81.976 Y25.319 E0.0036
G1 X81.97 Y25.324 E0.0002
G1 X80.365 Y26.821 E0.073
G1 X80.359 Y26.826 E0.0002
G1 X80.28 Y26.897 E0.0036
G1 X80.274 Y26.902 E0.0002
G1 X78.596 Y28.317 E0.073
G1 X78.591 Y28.321 E0.0002
G1 X78.507 Y28.388 E0.0036
G1 X78.501 Y28.393 E0.0002
G1 X76.755 Y29.723 E0.073
G1 X76.749 Y29.727 E0.0002
G1 X76.663 Y29.79 E0.0036
G1 X76.657 Y29.794 E0.0002
G1 X74.847 Y31.036 E0.073
G1 X74.841 Y31.04 E0.0002
G1 X74.751 Y31.098 E0.0036
G1 X74.745 Y31.102 E0.0002
G1 X72.875 Y32.253 E0.073
G1 X72.869 Y32.256 E0.0002
G1 X72.777 Y32.31 E0.0036
G1 X72.77 Y32.314 E0.0002
G1 X70.846 Y33.37 E0.073
G1 X70.839 Y33.373 E0.0002
G1 X70.744 Y33.422 E0.0036
G1 X70.738 Y33.426 E0.0002
G1 X68.764 Y34.385 E0.073
G1 X68.757 Y34.388 E0.0002
G1 X68.66 Y34.432 E0.0036
G1 X68.653 Y34.435 E0.0002
G1 X66.633 Y35.295 E0.073
G1 X66.626 Y35.298 E0.0002
G1 X66.527 Y35.337 E0.0036
G1 X66.52 Y35.34 E0.0002
G1 X64.46 Y36.098 E0.073
G1 X64.453 Y36.1 E0.0002
G1 X64.352 Y36.135 E0.0036
G1 X64.345 Y36.137 E0.0002
G1 X62.25 Y36.792 E0.073
G1 X62.243 Y36.794 E0.0002
G1 X62.14 Y36.823 E0.0036
G1 X62.133 Y36.825 E0.0002
G1 X60.008 Y37.375 E0.073
G1 X60.001 Y37.377 E0.0002
G1 X59.897 Y37.401 E0.0036
G1 X59.89 Y37.403 E0.0002
G1 X57.74 Y37.847 E0.073
G1 X57.733 Y37.848 E0.0002
G1 X57.628 Y37.867 E0.0036
G1 X57.621 Y37.868 E0.0002
G1 X55.452 Y38.205 E0.073
G1 X55.444 Y38.206 E0.0002
G1 X55.338 Y38.22 E0.0036
G1 X55.331 Y38.22 E0.0002
G1 X53.148 Y38.449 E0.073
G1 X53.141 Y38.449 E0.0002
G1 X53.034 Y38.458 E0.0036
G1 X53.027 Y38.458 E0.0002
